!!!COM: Tondra, Francais Jacques
!!!CDT: 1842-1891
!!!OTL: National Anthem; Congo, Republic La Congolaise
!!!ENC: Davis, Matthew J.
!!Vocal Line Only
**kern
*clefG2
*k[b-]
*F:
*M4/4
=1-
8.c
16c
=2
2cc
8.dd
16cc
8.b-
16dd
=3
4cc
4b-
4a
8.f
16g
=4
2a
8.a
16cc
8.b-
16a
=5
2.g
8.g
16a
=6
4b-
4a
4g
4dd
=7
4cc
2a
8.a
16a
=8
4dd
4f
4g
4g#
=9
2.a
8.d
16e
=10
2f
4d
8.e
16f
=11
2g
4e
8.f
16g
=12
4a
4dd
4cc
4b-
=13
2.a
==14
!Chorus
8.a
16a
=15
4b-
4b-
4b-
8.cc
16b-
=16
4a
4a
4a
8.a
16a
=17
4b-
4b-
4b-
8.cc
16b-
=18
4a
4a
4a
8.c
16c
=19
2cc
8.dd
16cc
8.b-
16dd
=20
4cc
4b-
4a
8.f
16g
=21
2a
8.a
16cc
8.b-
16a
=22
2.g
8.f
16f
=23
2dd
4b-
8.a
16g
=24
4cc
4a
4f
8.cc
16cc
=25
4b-
4g
4f
4e
=26
2.cc
8.f
16f
=27
2dd
4b-
8.a
16g
=28
4cc
4a
4f
8.cc
16cc
=29
4cc
4cc 4b-
4d 4a
4ee 4g
=30
2.ff 2.f
==|!
*-
